X: 22797
T: Lanigan's Ball
R: jig
M: 6/8
K: Eminor
|:E2E G2A|B2A Bcd|~D3 F2G|ABA AFD|
E2E G2A|B2A Bcd|edB cBA|1 BAG AGF:|2 BEE E3||
|:e2f g2e|fag fed|e2f gfe|fdB B2B|
e2f g2e|fag fed|edB cBA|1 BEE E3:|2 BAG AGF||

